resources/icons/ico-collapse.svg

<svg height="10" viewBox="0 0 15 10" width="15" xmlns="http://www.w3.org/2000/svg"><path d="m869.49 134.5 3.5-3.5-1-1-4.99 5 4.99 5 1-1-3.5-3.5h8.51v-1zm-.49.49-.01.01.01.01zm-6-4.99h2v10h-2z" fill="#fff" fill-rule="evenodd" transform="translate(-863 -130)"/></svg>

<?xml version="1.0" encoding="UTF-8" standalone="no"?>
<svg width="15px" height="10px" viewBox="0 0 15 10" version="1.1" xmlns="http://www.w3.org/2000/svg" xmlns:xlink="http://www.w3.org/1999/xlink">
    <!-- Generator: sketchtool 39.1 (31720) - http://www.bohemiancoding.com/sketch -->
    <title>7130138D-720F-4B63-BF35-830287DED9FA</title>
    <desc>Created with sketchtool.</desc>
    <defs></defs>
    <g id="main" stroke="none" stroke-width="1" fill="none" fill-rule="evenodd">
        <g id="pattern-generatormenu-HD" transform="translate(-863.000000, -130.000000)" fill="#FFFFFF">
            <path d="M869.49,134.5 L872.99,131 L871.99,130 L867,135 L871.99,140 L872.99,139 L869.49,135.5 L878,135.5 L878,134.5 L869.49,134.5 Z M869,134.99 L868.99,135 L869,135.01 L869,134.99 Z M863,130 L865,130 L865,140 L863,140 L863,130 Z" id="ico-collapse"></path>
        </g>
    </g>
</svg>
